X: 3
T: The Morning Dew
R: reel
M: 4/4
L: 1/8
K: Edor
|: E3 B- BAFD | EDEB BAFD | E3 B- BAFA | BcdB AFDF :||: B2 eB fBeB | B2 eB AFDF | B2eB fBeB |[1 BcdB AFDF :|[2 Bdeg fdec | d2 dA BAFD |||: B2 EB GBEB | B2 EB AFDF |[1 B2 EB GBEB | BcdB AFDF :|[2 Bdeg fdec | d2 dA BAFD |||: BAGF EFGA | B2 GB A2 GA | BAGF EFGA | BcdB AFDF :|


Tune 69	Setting 12527

